!!!OTL: GUTE NACHT JETZT MUSS ICH SCHEIDEN
!!!ARE: Europa, Mitteleuropa, Deutschland, Franken
!!!SCT: E1591
!!!YEM: Copyright 1995, estate of Helmut Schaffrath.
**kern
*ICvox
*Ivox
*M4/4
*k[b-]
*F:
=1
{4.a
8g
8g
8f
4f
=2
4.cc
8b-
8b-
8a
4a}
=3
{4.a
8a
4g
4cc
=4
8ee
8dd
8cc
8bn
2cc}
=5
{4.a
8g
8g
8f
4f
=6
4.cc
8b-
8b-
8a
4a}
=7
{4.a
8a
4g
4cc
=8
8ee
8dd
8cc
8bn
2cc}
=9
{4.a
8b-
4cc
4ff
=10
4.dd
8cc
8cc
8b-
4b-}
=11
{4.g
8a
4b-
4dd
=12
8dd
8cc
8b-
8a
4a
4g}
=13
{4.a
8g
8g
8f
4f
=14
4.cc
8b-
8b-
8a
4a}
=15
{4.dd
8ee
8ff
8cc
8dd
8b-
=16
4a
4g
2f}
==
!!!AGN: Staende - Lied, Strassen - Raeuber, Schinderhannes
!!!ONB: ESAC (Essen Associative Code) Database: ERK3
!!!AMT: simple quadruple
!!!AIN: vox
!!!EED: Helmut Schaffrath
!!!EEV: 1.0
*-
